src/assets/icons/heart.svg

<?xml version="1.0" encoding="UTF-8"?>
<svg width="12px" height="11px" viewBox="0 0 12 11" version="1.1" xmlns="http://www.w3.org/2000/svg" xmlns:xlink="http://www.w3.org/1999/xlink">
    <!-- Generator: Sketch 52.4 (67378) - http://www.bohemiancoding.com/sketch -->
    <title>Shape</title>
    <desc>Created with Sketch.</desc>
    <g id="Symbols" stroke="none" stroke-width="1" fill="none" fill-rule="evenodd">
        <g id="footer" transform="translate(-1154.000000, -226.000000)" fill="#FF2800" fill-rule="nonzero">
            <g id="made_with_love">
                <g transform="translate(1017.900000, 223.100000)">
                    <g id="heart-2" transform="translate(137.000000, 3.000000)">
                        <path d="M10.0604167,0.940041667 C9.45404167,0.334125 8.64875,0 7.79166667,0 C6.93458333,0 6.12929167,0.334125 5.523375,0.939583333 C5.51558333,0.947375 5.50779167,0.955166667 5.5,0.963416667 C5.49220833,0.955166667 5.484875,0.947833333 5.47708333,0.940041667 C4.87070833,0.334125 4.06541667,0 3.20833333,0 C2.35125,0 1.54595833,0.334125 0.939583333,0.940041667 C0.333208333,1.54595833 0,2.35125 0,3.20833333 C0,4.06541667 0.333666667,4.87070833 0.939583333,5.476625 L5.5,10.0370417 L10.0604167,5.476625 C10.6663333,4.87070833 11,4.06541667 11,3.20833333 C11,2.35170833 10.6663333,1.54595833 10.0604167,0.940041667 Z" id="Shape"></path>
                    </g>
                </g>
            </g>
        </g>
    </g>
</svg>

<svg height="11" viewBox="0 0 12 11" width="12" xmlns="http://www.w3.org/2000/svg"><path d="m10.0604167.94004167c-.60637503-.60591667-1.4116667-.94004167-2.26875003-.94004167-.85708334 0-1.662375.334125-2.26829167.93958333-.00779167.00779167-.01558333.01558334-.023375.02383334-.00779167-.00825-.015125-.01558334-.02291667-.023375-.606375-.60591667-1.41166666-.94004167-2.26875-.94004167-.85708333 0-1.662375.334125-2.26875.94004167-.606375.60591666-.93958333 1.41120833-.93958333 2.26829166 0 .85708334.33366667 1.662375.93958333 2.26829167l4.56041667 4.5604167 4.5604167-4.5604167c.6059166-.60591667.9395833-1.41120833.9395833-2.26829167 0-.856625-.3336667-1.662375-.9395833-2.26829166z" fill="#ff2800" transform="translate(.9 .1)"/></svg>
